icons/svg/businessmen.svg

<?xml version="1.0" encoding="UTF-8" standalone="no"?>
<!-- Created with Inkscape (http://www.inkscape.org/) -->

<svg
   xmlns:dc="http://purl.org/dc/elements/1.1/"
   xmlns:cc="http://creativecommons.org/ns#"
   xmlns:rdf="http://www.w3.org/1999/02/22-rdf-syntax-ns#"
   xmlns:svg="http://www.w3.org/2000/svg"
   xmlns="http://www.w3.org/2000/svg"
   xmlns:sodipodi="http://sodipodi.sourceforge.net/DTD/sodipodi-0.dtd"
   xmlns:inkscape="http://www.inkscape.org/namespaces/inkscape"
   width="32px"
   height="32px"
   id="svg3103"
   version="1.1"
   inkscape:version="0.91 r13725"
   sodipodi:docname="businessmen.svg">
  <defs
     id="defs3105" />
  <sodipodi:namedview
     id="base"
     pagecolor="#ffffff"
     bordercolor="#666666"
     borderopacity="1.0"
     inkscape:pageopacity="0.0"
     inkscape:pageshadow="2"
     inkscape:zoom="14.521565"
     inkscape:cx="2.9526668"
     inkscape:cy="11.583844"
     inkscape:current-layer="layer1"
     showgrid="true"
     inkscape:grid-bbox="true"
     inkscape:document-units="px"
     inkscape:window-width="1920"
     inkscape:window-height="1056"
     inkscape:window-x="0"
     inkscape:window-y="24"
     inkscape:window-maximized="1" />
  <metadata
     id="metadata3108">
    <rdf:RDF>
      <cc:Work
         rdf:about="">
        <dc:format>image/svg+xml</dc:format>
        <dc:type
           rdf:resource="http://purl.org/dc/dcmitype/StillImage" />
        <dc:title />
      </cc:Work>
    </rdf:RDF>
  </metadata>
  <g
     id="layer1"
     inkscape:label="Layer 1"
     inkscape:groupmode="layer">
    <path
       style="fill:#2d2d2d;fill-opacity:1;stroke:none"
       d="M 16.273438 0.00390625 C 12.131303 0.00390625 8.7734375 3.3617722 8.7734375 7.5039062 C 8.7734375 11.64604 12.131303 15.003906 16.273438 15.003906 C 20.415572 15.003906 23.773438 11.64604 23.773438 7.5039062 C 23.773437 3.3617722 20.415572 0.00390625 16.273438 0.00390625 z M 8.7871094 14.6875 C 8.7336674 14.6899 8.7086004 14.6958 8.6621094 14.71875 L 1.3183594 18.34375 C -0.16934432 19.079232 0.008600075 20.54133 0.005859375 22.0625 L 0.005859375 27.46875 L 0.005859375 30.25 L 0.005859375 31.1875 C 0.005859375 31.629686 0.65592996 32 1.4746094 32 L 30.537109 32 C 31.355789 32 32.005859 31.629686 32.005859 31.1875 L 32.005859 30.5625 L 32.005859 22.375 C 32.003159 20.85383 32.188273 19.391732 30.693359 18.65625 L 23.318359 15.03125 C 21.823436 14.295759 16.610991 24.400023 16.193359 25.875 L 16.005859 26.5625 L 15.724609 25.5625 C 15.321982 24.133617 10.443819 14.612115 8.7871094 14.6875 z M 22.537109 22.84375 L 28.724609 22.84375 C 28.940338 22.84375 29.130859 23.034271 29.130859 23.25 C 29.130859 23.465729 28.940338 23.625 28.724609 23.625 L 22.537109 23.625 C 22.32138 23.625 22.130859 23.465729 22.130859 23.25 C 22.130859 23.034271 22.32138 22.84375 22.537109 22.84375 z M 16.130859 28.65625 C 16.931815 28.65625 17.568359 29.220629 17.568359 29.9375 C 17.568359 30.654369 16.931815 31.25 16.130859 31.25 C 15.329903 31.25 14.662109 30.654369 14.662109 29.9375 C 14.662109 29.220629 15.329903 28.65625 16.130859 28.65625 z "
       id="path3157-2-5-6" />
  </g>
</svg>

<?xml version="1.0" encoding="UTF-8" standalone="no"?>
<!-- Created with Inkscape (http://www.inkscape.org/) -->

<svg
   xmlns:dc="http://purl.org/dc/elements/1.1/"
   xmlns:cc="http://creativecommons.org/ns#"
   xmlns:rdf="http://www.w3.org/1999/02/22-rdf-syntax-ns#"
   xmlns:svg="http://www.w3.org/2000/svg"
   xmlns="http://www.w3.org/2000/svg"
   xmlns:sodipodi="http://sodipodi.sourceforge.net/DTD/sodipodi-0.dtd"
   xmlns:inkscape="http://www.inkscape.org/namespaces/inkscape"
   width="32px"
   height="32px"
   id="svg3103"
   version="1.1"
   inkscape:version="0.48.4 r9939"
   sodipodi:docname="businessmen.svg">
  <defs
     id="defs3105" />
  <sodipodi:namedview
     id="base"
     pagecolor="#ffffff"
     bordercolor="#666666"
     borderopacity="1.0"
     inkscape:pageopacity="0.0"
     inkscape:pageshadow="2"
     inkscape:zoom="11.197802"
     inkscape:cx="6.8898215"
     inkscape:cy="15.027342"
     inkscape:current-layer="layer1"
     showgrid="true"
     inkscape:grid-bbox="true"
     inkscape:document-units="px"
     inkscape:window-width="1623"
     inkscape:window-height="1026"
     inkscape:window-x="57"
     inkscape:window-y="24"
     inkscape:window-maximized="1" />
  <metadata
     id="metadata3108">
    <rdf:RDF>
      <cc:Work
         rdf:about="">
        <dc:format>image/svg+xml</dc:format>
        <dc:type
           rdf:resource="http://purl.org/dc/dcmitype/StillImage" />
        <dc:title />
      </cc:Work>
    </rdf:RDF>
  </metadata>
  <g
     id="layer1"
     inkscape:label="Layer 1"
     inkscape:groupmode="layer">
    <g
       inkscape:label="Layer 1"
       id="layer1-3"
       transform="translate(0.00534438,0)"
       style="fill:#00002d;fill-opacity:1">
      <path
         id="path3157-2-5-6"
         d="m 207.54716,216.04143 c 0,4.94972 -4.01254,8.96226 -8.96226,8.96226 -4.94972,0 -8.96226,-4.01254 -8.96226,-8.96226 0,-4.94972 4.01254,-8.96227 8.96226,-8.96227 4.94972,0 8.96226,4.01255 8.96226,8.96227 z"
         style="fill:#00002d;fill-opacity:1;stroke:none"
         transform="matrix(0.83684211,0,0,0.83684211,-149.9167,-173.28786)"
         inkscape:connector-curvature="0" />
      <path
         id="rect3163-1-8-25"
         d="m 8.78125,14.6875 c -0.053442,0.0024 -0.078509,0.0083 -0.125,0.03125 l -7.34375,3.625 C -0.17520367,19.079232 0.0027407,20.54133 0,22.0625 L 0,27.46875 0,30.25 0,31.1875 C 0,31.629686 0.65007061,32 1.46875,32 l 29.0625,0 C 31.34993,32 32,31.629686 32,31.1875 l 0,-0.625 0,-8.1875 c -0.0027,-1.52117 0.182414,-2.983268 -1.3125,-3.71875 l -7.375,-3.625 C 21.817577,14.295759 16.605132,24.400023 16.1875,25.875 L 16,26.5625 l -0.28125,-1 C 15.316123,24.133617 10.43796,14.612115 8.78125,14.6875 z m 13.75,8.15625 6.1875,0 c 0.215729,0 0.40625,0.190521 0.40625,0.40625 0,0.215729 -0.190521,0.375 -0.40625,0.375 l -6.1875,0 c -0.215729,0 -0.40625,-0.159271 -0.40625,-0.375 0,-0.215729 0.190521,-0.40625 0.40625,-0.40625 z m -6.40625,5.8125 c 0.800956,0 1.4375,0.564379 1.4375,1.28125 0,0.716869 -0.636544,1.3125 -1.4375,1.3125 -0.800956,0 -1.46875,-0.595631 -1.46875,-1.3125 0,-0.716871 0.667794,-1.28125 1.46875,-1.28125 z"
         style="fill:#00002d;fill-opacity:1;stroke:none"
         inkscape:connector-curvature="0" />
    </g>
  </g>
</svg>
